icons/svg/sync.svg

<svg xmlns="http://www.w3.org/2000/svg" version="1.1" baseProfile="full" width="24" height="24" viewBox="0 0 24.00 24.00" xml:space="preserve"><path fill="#000" fill-opacity="1" stroke-linejoin="round" d="M12 18c-3.31 0-6-2.69-6-6 0-1.01.25-1.97.7-2.8L5.24 7.74C4.46 8.97 4 10.43 4 12c0 4.42 3.58 8 8 8v3l4-4-4-4m0-11V1L8 5l4 4V6c3.31 0 6 2.69 6 6 0 1.01-.25 1.97-.7 2.8l1.46 1.46C19.54 15.03 20 13.57 20 12c0-4.42-3.58-8-8-8z"/></svg>

﻿<?xml version="1.0" encoding="utf-8"?>
<!DOCTYPE svg PUBLIC "-//W3C//DTD SVG 1.1//EN" "http://www.w3.org/Graphics/SVG/1.1/DTD/svg11.dtd">
<svg xmlns="http://www.w3.org/2000/svg" xmlns:xlink="http://www.w3.org/1999/xlink" version="1.1" baseProfile="full" width="24" height="24" viewBox="0 0 24.00 24.00" enable-background="new 0 0 24.00 24.00" xml:space="preserve">
	<path fill="#000000" fill-opacity="1" stroke-linejoin="round" d="M 12,18C 8.69,18 6,15.31 6,12C 6,10.99 6.25,10.03 6.7,9.2L 5.24,7.74C 4.46,8.97 4,10.43 4,12C 4,16.42 7.58,20 12,20L 12,23L 16,19L 12,15M 12,4L 12,1L 8,5L 12,9L 12,6C 15.31,6 18,8.69 18,12C 18,13.01 17.75,13.97 17.3,14.8L 18.76,16.26C 19.54,15.03 20,13.57 20,12C 20,7.58 16.42,4 12,4 Z "/>
</svg>
